icons/breezeLight/actions/24/thermal-path.svg

<svg viewBox="0 0 24 24" xmlns="http://www.w3.org/2000/svg"><circle cx="12" cy="12" fill="#4d4d4d" fill-opacity=".501961" r="5"/><path d="m13 4.0703125v1.0097656a7 7 0 0 1 5.921875 5.9199219h1.007813a8 8 0 0 0 -6.929688-6.9296875zm-2 .0019531a8 8 0 0 0 -6.9277344 6.9277344h1.0078125a7 7 0 0 1 5.9199219-5.921875zm-6.9296875 8.9277344a8 8 0 0 0 6.9296875 6.929688v-1.009766a7 7 0 0 1 -5.921875-5.919922zm14.8496095 0a7 7 0 0 1 -5.919922 5.921875v1.005859a8 8 0 0 0 6.927734-6.927734z" fill="#da4453"/><path d="m12 7a5 5 0 0 0 -5 5 5 5 0 0 0 5 5 5 5 0 0 0 5-5 5 5 0 0 0 -5-5zm0 1a3.9999997 3.9999999 0 0 1 4 4 3.9999997 3.9999999 0 0 1 -4 4 3.9999997 3.9999999 0 0 1 -4-4 3.9999997 3.9999999 0 0 1 4-4z" fill="#4d4d4d"/></svg>

<?xml version="1.0" encoding="UTF-8" standalone="no"?>
<svg
   xmlns:dc="http://purl.org/dc/elements/1.1/"
   xmlns:cc="http://creativecommons.org/ns#"
   xmlns:rdf="http://www.w3.org/1999/02/22-rdf-syntax-ns#"
   xmlns:svg="http://www.w3.org/2000/svg"
   xmlns="http://www.w3.org/2000/svg"
   xmlns:sodipodi="http://sodipodi.sourceforge.net/DTD/sodipodi-0.dtd"
   xmlns:inkscape="http://www.inkscape.org/namespaces/inkscape"
   viewBox="0 0 24 24"
   version="1.1"
   id="svg6"
   sodipodi:docname="thermal.svg"
   inkscape:version="0.92.4 (5da689c313, 2019-01-14)">
  <metadata
     id="metadata10">
    <rdf:RDF>
      <cc:Work
         rdf:about="">
        <dc:format>image/svg+xml</dc:format>
        <dc:type
           rdf:resource="http://purl.org/dc/dcmitype/StillImage" />
        <dc:title />
      </cc:Work>
    </rdf:RDF>
  </metadata>
  <sodipodi:namedview
     pagecolor="#ffffff"
     bordercolor="#666666"
     borderopacity="1"
     objecttolerance="10"
     gridtolerance="10"
     guidetolerance="10"
     inkscape:pageopacity="0"
     inkscape:pageshadow="2"
     inkscape:window-width="1857"
     inkscape:window-height="1058"
     id="namedview8"
     showgrid="true"
     inkscape:zoom="39.333333"
     inkscape:cx="9.1198813"
     inkscape:cy="12.632809"
     inkscape:window-x="55"
     inkscape:window-y="-8"
     inkscape:window-maximized="1"
     inkscape:current-layer="svg6"
     inkscape:snap-object-midpoints="true">
    <inkscape:grid
       type="xygrid"
       id="grid817"
       empspacing="8" />
  </sodipodi:namedview>
  <defs
     id="defs3051">
    <style
       type="text/css"
       id="current-color-scheme">
      .ColorScheme-Text {
        color:#4d4d4d;
      }
      </style>
  </defs>
  <circle
     style="fill:#4d4d4d;fill-opacity:0.50196081;stroke:none"
     id="path839"
     cx="12"
     cy="12"
     r="5" />
  <path
     style="fill:#da4453;fill-opacity:1;stroke:none"
     d="M 13 4.0703125 L 13 5.0800781 A 7 7 0 0 1 18.921875 11 L 19.929688 11 A 8 8 0 0 0 13 4.0703125 z M 11 4.0722656 A 8 8 0 0 0 4.0722656 11 L 5.0800781 11 A 7 7 0 0 1 11 5.078125 L 11 4.0722656 z M 4.0703125 13 A 8 8 0 0 0 11 19.929688 L 11 18.919922 A 7 7 0 0 1 5.078125 13 L 4.0703125 13 z M 18.919922 13 A 7 7 0 0 1 13 18.921875 L 13 19.927734 A 8 8 0 0 0 19.927734 13 L 18.919922 13 z "
     id="path819" />
  <path
     style="fill:#4d4d4d;fill-opacity:1;stroke:none;stroke-width:0.83333337"
     d="M 12 7 A 5 5 0 0 0 7 12 A 5 5 0 0 0 12 17 A 5 5 0 0 0 17 12 A 5 5 0 0 0 12 7 z M 12 8 A 3.9999997 3.9999999 0 0 1 16 12 A 3.9999997 3.9999999 0 0 1 12 16 A 3.9999997 3.9999999 0 0 1 8 12 A 3.9999997 3.9999999 0 0 1 12 8 z "
     id="path833" />
</svg>
